!!!COM: Bach, Johann Sebastian
!!!OPR: Das wohltemperirte Clavier, Band I
!!!XEN: Well-Tempered Clavier, Volume I
!!!OTL: Fugue in C Major
!!!OMV: Fugue  I
!!!SCT: BWV 846
!!!SCA: Thematisch-systematisches Verzeichnis der musikalischen Werke Johann Sebastian Bach: Bach-Werke-Verzeichnis (Schmieder)
!!!YOR: Bach Gesellschaft Edition xiv
!!!EED: Walter Hewlett
!!!ENC: Walter Hewlett
!!!CDT: 1685/3//-1750/7/28/
!!!OCY: Deutschland
!!!YEC: Copyright (c) 1994, 2000 Center for Computer Assisted Research in the Humanities
!!!YEM: Rights to all derivative editions reserved
!!!YEM: Refer to licensing agreement for further details
!!!YEN: United States of America
**kern
*I:
*clefG6
*k[]
*C:
*M4/4
! a 4
=1-
*^
*^	*
*^	*	*
1r	8r	1r	1r
.	8c\L	.	.
.	8d\	.	.
.	8e\J	.	.
.	8.f\L	.	.
.	32g\LL	.	.
.	32f\JJJ	.	.
.	8e\L	.	.
.	8a\J	.	.
=2	=2	=2	=2
2r	8d\L	1r	1r
.	[8g\J	.	.
.	16g\LL]	.	.
.	16a\	.	.
.	16g\	.	.
.	16f\JJ	.	.
8r	16e\LL	.	.
.	16f\	.	.
8g/L	16e\	.	.
.	16d\JJ	.	.
8a/	16c\LL	.	.
.	16d\	.	.
8b/J	16c\	.	.
.	16B\JJ	.	.
=3	=3	=3	=3
8.cc/L	8A\L	1r	1r
.	8f#\J	.	.
32dd/LL	.	.	.
32cc/JJJ	.	.	.
8b/L	[4g\	.	.
8ee/J	.	.	.
8a/L	8g\L]	.	.
[8dd/J	16f#\L	.	.
.	16e\JJ	.	.
16dd/LL]	8f#\L	.	.
16ee/	.	.	.
16dd/	8d\J	.	.
16cc/JJ	.	.	.
=4	=4	=4	=4
16b/LL	8g\L	8r	1r
16g/	.	.	.
16a/	8f\	8G/L	.
16b/JJ	.	.	.
16cc/LL	8e\	8A/	.
16b/	.	.	.
16cc/	8d\J	8B/J	.
16dd/JJ	.	.	.
16ee/LL	8c\	8.c/L	.
16dd/	.	.	.
16ee/	8r	.	.
16ff#/JJ	.	32d/LL	.
.	.	32c/JJJ	.
8gg/L	8r	8B/L	.
8b/J	[8g\	8e/J	.
=5	=5	=5	=5
8cc/L	8g\L]	8A/L	2r
8a/J	16f\L	[8d/J	.
.	16e\JJ	.	.
16dd/LL	[4f\	16d/LL]	.
16cc/	.	16e/	.
16b/	.	16d/	.
16a/JJ	.	16c/JJ	.
8.g/L	16f\LL]	8B/L	8r
.	16f\J	.	.
.	8e\J	[8c/	8C\L
16g/Jk	.	.	.
16f/LL	4d\	8c/]	8D\
16e/	.	.	.
16f/	.	8B-/J	8E\J
16g/JJ	.	.	.
=6	=6	=6	=6
16a/LL	8c\L	8A/L	8.F\L
16g/	.	.	.
16a/	8f\J	8d/	.
16b/JJ	.	.	32G\LL
.	.	.	32F\JJJ
2cc/	16r	8G/	8E\L
.	16g\LL	.	.
.	16f\	8c/J	8A\J
.	16e\JJ	.	.
.	8f\L	16r	8D\L
.	.	16A/LL	.
.	8d\J	16B/	[8G\J
.	.	16c/JJ	.
4b/	[4g\	4d/	16G\LL]
.	.	.	16A\
.	.	.	16G\
.	.	.	16F\JJ
=7	=7	=7	=7
8r	4g\]	4G/	16E\LL
.	.	.	16F\
8cc/L	.	.	16E\
.	.	.	16D\JJ
8dd/	4r	8r	16C\LL
.	.	.	16D\
8ee/J	.	8G/	16C\
.	.	.	16BB\JJ
8.ff/L	2r	8A/L	8AA\L
.	.	8B/J	8D\
32gg/LL	.	.	.
32ff/JJJ	.	.	.
8ee/L	.	8.c/L	8A\
8aa/J	.	.	8F#\J
.	.	32d/LL	.
.	.	32c/JJJ	.
=8	=8	=8	=8
8dd/L	1r	8B/L	16G\LL
.	.	.	16A\
[8gg/J	.	8e/	16B-\
.	.	.	16G\JJ
16gg/LL]	.	8A/	8C#\L
16aa/	.	.	.
16gg/	.	[8d/J	8D\J
16ff/JJ	.	.	.
8ee/L	.	16d/LL]	4A\
.	.	16e/	.
[8aa/J	.	16d/	.
.	.	16c/JJ	.
16aa/LL]	.	8B/L	4E\
16bb/	.	.	.
16aa/	.	[8e/J	.
16gg/JJ	.	.	.
=9	=9	=9	=9
2ff/	8r	4e/]	16A\LL
.	.	.	16B\
.	8g\L	.	16c\
.	.	.	16d\JJ
.	8a\	4d/	16c\LL
.	.	.	16B\
.	8b\J	.	16A\
.	.	.	16G\JJ
8.ee/L	8.cc\L	16c/LL	8c\
.	.	16B/	.
.	.	16c/	8r
16ff#/Jk	32dd\LL	16A/JJ	.
.	32cc\JJJ	.	.
[4gg/	8b\L	16e/LL	4r
.	.	16d/	.
.	8ee\J	16c/	.
.	.	16B/JJ	.
=10	=10	=10	=10
4gg/]	8a\L	16c/LL	2r
.	.	16A/	.
.	[8dd\J	16B/	.
.	.	16c/JJ	.
4ff#/	16dd\LL]	16d/LL	.
.	16ee\	16c/	.
.	16dd\	16B/	.
.	16cc\JJ	16A/JJ	.
16gg/LL	8b\	4G/	8r
16ffn/	.	.	.
16ee/	8r	.	8GG\L
16dd/JJ	.	.	.
16cc/LL	8r	4r	8AA\
16dd/	.	.	.
16cc/	8d\	.	8BB\J
16b/JJ	.	.	.
=11	=11	=11	=11
16a/LL	8e\L	1r	8.C\L
16cc/	.	.	.
16b/	8f#\J	.	.
16a/JJ	.	.	32D\LL
.	.	.	32C\JJJ
8g/	8.g\L	.	8BB\L
8r	.	.	8E\J
.	32a\LL	.	.
.	32g\JJJ	.	.
16r	8f#\L	.	8AA\L
16cc/LL	.	.	.
16b/	8b\	.	[8D\J
16a/JJ	.	.	.
8g#/L	8e\	.	16D\LL]
.	.	.	16E\
8ee/J	[8a\J	.	16D\
.	.	.	16C\JJ
=12	=12	=12	=12
8dd/L	16a\LL]	8r	8BB\
.	16b\	.	.
16cc/L	16a\	8E/L	4E\
16b/JJ	16g#\JJ	.	.
16a/LL	8f#\L	8F#/	.
16g#/	.	.	.
16a/	8fn\J	8G#/J	8D\
16b/JJ	.	.	.
16cc/LL	8e\L	8.A/L	8C\
16f#/	.	.	.
16a/	[8d\J	.	4F\
16g#/JJ	.	32B/LL	.
.	.	32A/JJJ	.
8b/L	16d\LL]	8G#/L	.
.	16e\	.	.
16a/L	16f#\	8c/J	[8E\
16b/JJ	16g#\JJ	.	.
=13	=13	=13	=13
8cc/L	16a\LL	8F#/L	8E\]
.	16g#\	.	.
8ff/	16a\	[8B/J	4D\
.	16b\JJ	.	.
8ee/	16g#\LL	16B/LL]	.
.	16f#\	16c/	.
[8dd/J	16g#\	16B/	8E\
.	16a\JJ	16A/JJ	.
8dd/L]	8b\	8G#/	8F\L
16cc/L	8r	4A/	16E\L
16b/JJ	.	.	16D\JJ
8.b/L	4r	.	4E\
.	.	8G#/	.
16a/Jk	.	.	.
=14	=14	=14	=14
4a/	8r	4A/	4AA\
.	8c\L	.	.
4r	8d\	8r	4r
.	8e\J	8G/	.
2r	8.f/L	8A/L	2r
.	.	8B/J	.
.	32g/LL	.	.
.	32f/JJJ	.	.
.	8e/L	8.c\L	.
.	8a/J	.	.
.	.	32d\LL	.
.	.	32c\JJJ	.
=15	=15	=15	=15
2r	8d/L	8B\L	8r
.	[8g/J	8e\	8GG\L
.	16g/LL]	8A\	8AA\
.	16a/	.	.
.	16g/	[8d\J	8BB\J
.	16f/JJ	.	.
8r	8e/	8d\L]	8.C\L
8g/ 8eL	32ryy	8G/J	.
.	32ryy	.	.
.	32ryy	.	32D\LL
.	32ryy	.	32C\JJJ
8a/ 8f#	32ryy	4d\	8BB\L
.	32ryy	.	.
.	32ryy	.	.
.	32ryy	.	.
[8b/ 8gJ	32ryy	.	8E\J
.	32ryy	.	.
.	32ryy	.	.
.	32ryy	.	.
=16	=16	=16	=16
8.cc/L	8g/L	8c\L	8AA\L
.	8f#/J	8A/J	[8D\J
32dd/LL	.	.	.
32cc/JJJ	.	.	.
8b/ 8g#L	4ryy	4e\	16D\LL]
.	.	.	16E\
[8cc/ 8aJ	.	.	16D\
.	.	.	16C\JJ
8dd/L	8a/L	8d\	8BB\L
8ee/J	8gn/	8r	8BB-\
8.ffn/L	8a/	4r	8AA\
.	8b/J	.	8GG\J
32gg/LL	.	.	.
32ff/JJJ	.	.	.
=17	=17	=17	=17
8ee/L	8.cc\L	8r	8AA\L
8aa/	.	8A/L	8F#\
.	32dd\LL	.	.
.	32cc\JJJ	.	.
8dd/	8b\L	8B/	8G\
[8gg/J	8ee\J	8c#/J	8E\J
16gg/LL]	8a\L	8.d/L	4D\
16aa/	.	.	.
16gg/	[8dd\J	.	.
16ff/JJ	.	32e/LL	.
.	.	32d/JJJ	.
8ee/L	16dd\LL]	8cn/L	8E\L
.	16ee\	.	.
8aa/J	16dd\	8f/J	8Fn\J
.	16cc\JJ	.	.
=18	=18	=18	=18
8dd/L	8b\L	8B/L	8.G\L
8bb-/J	8gg\	[8e/J	.
.	.	.	32A\LL
.	.	.	32G\JJJ
8aa/L	8cc#\	16e/LL]	8F\L
.	.	16f/	.
16gg/L	8dd\J	16e/	8B-\J
16ff/JJ	.	16d/JJ	.
16gg/LL	8ee\L	8c#/	8E\L
16ff/	.	.	.
16gg/	8cc#\	8r	[8A\J
16ee/JJ	.	.	.
16ff/LL	8dd\	4r	16A\LL]
16gg/	.	.	16B-\
16ggT/	8ee\J	.	16A\
32ff/L	.	.	16G\JJ
32gg/JJJ	.	.	.
=19	=19	=19	=19
16aa/LL	8a\	8r	16F\LL
16cc#/	.	.	16E\
16dd/	8r	8A/L	16F\
16gg/JJ	.	.	16D\JJ
8.ee/L	8r	8B/	8G\L
.	8e\	8c#/J	8A\J
16dd/Jk	.	.	.
8dd/	8f#\L	8.d/L	[2D\
8r	8g\J	.	.
.	.	32e\LL	.
.	.	32d\JJJ	.
4r	8.a/L	8cn\L	.
.	.	8f#\J	.
.	32b/LL	.	.
.	32a/JJJ	.	.
=20	=20	=20	=20
2r	8g/L	8B\L	16D\LL]
.	.	.	16E\
.	8cc/	[8e\J	16D\
.	.	.	16C\JJ
.	8f#/	16e\LL]	16BB\LL
.	.	16f#\	16AA\
.	[8b/J	16e\	16GG\
.	.	16d\JJ	16FF#\JJ
4r	16b/LL]	[2c\	8EE\L
.	16cc/	.	.
.	16b/	.	8E\
.	16a/JJ	.	.
8r	16g\LL	.	8F#\
.	16f#\	.	.
8g/]	16e\	.	[8G\J
.	16d\JJ	.	.
=21	=21	=21	=21
8a/L]	4e/	16c\LL]	8G\L]
.	.	16d/	.
8b/J	.	16c/	16A\L
.	.	16B/JJ	16G\JJ
8.cc/L	[4d\	16A/LL	8F#\L
.	.	16G/	.
.	.	16A/	8D\J
32dd/LL	.	16F#/JJ	.
32cc/JJJ	.	.	.
8b/L	16d\LL]	8G/L	[2G\
.	16a\	.	.
8ee/	16g\	8B/	.
.	16fn\JJ	.	.
8a/	16e\LL	8c/	.
.	16g\	.	.
[8dd/J	16f\	8d/J	.
.	16a\JJ	.	.
=22	=22	=22	=22
16dd/LL]	[4g\	8.e/L	2G\]
16ee/	.	.	.
16dd/	.	.	.
16cc/JJ	.	32f/LL	.
.	.	32e/JJJ	.
16b/LL	16g\LL]	8d/L	.
16cc/	16a\J	.	.
16dd/	8b-\J	8g/J	.
16ee/JJ	.	.	.
16ff/LL	4cc\	8c/L	4A\
16gg/	.	.	.
16aa/	.	[8f/J	.
16gg/JJ	.	.	.
16ff/LL	8dd\L	16f/LL]	8B\L
16ee/	.	16g/	.
16dd/	8g\J	16f/	8c\J
16cc/JJ	.	16e/JJ	.
=23	=23	=23	=23
4b/	4.g/	4d\	16F\LL
.	.	.	16A\
.	.	.	16G\
.	.	.	16F\JJ
8cc/L	.	8e\L	16E\LL
.	.	.	16D\
8dd/J	[8f/	[8d\J	16C\
.	.	.	16BB\JJ
8g/	8f/L]	8d\L]	16C\LL
.	.	.	16D\
4cc/	8e/J	8G/J	16E\
.	.	.	16F\JJ
.	4d/	[4G/	8G\L
8b/	.	.	8GG\J
=24	=24	=24	=24
4cc/	8e\	8G/L]	[1C\
.	4a\	8C/	.
8b/L	.	8D/	.
8b-/J	[8g\	8E/J	.
8a/	8g\L]	8.F/L	.
4dd/	8f\	.	.
.	.	32G/LL	.
.	.	32F/JJJ	.
.	8g\	8E/L	.
8cc/	8a\J	8A/J	.
=25	=25	=25	=25
8dd/L	8.b-\L	8D/L	1C\_
8ee/J	.	[8G/J	.
.	32cc\LL	.	.
.	32b-\JJJ	.	.
[4ff/	8a\L	16G/LL]	.
.	.	16A/	.
.	8dd\J	16G/	.
.	.	16F/JJ	.
16ff/LL]	8g\L	16E/LL	.
16aa/	.	16D/	.
16gg/	[8cc\J	16E/	.
16ff/JJ	.	16F/JJ	.
16ee/LL	16cc\LL]	16G/LL	.
16ff/	16dd\	16A/	.
16ee/	16cc\	16B-/	.
16dd/JJ	16b-\JJ	16G/JJ	.
=26	=26	=26	=26
2cc/	16a\LL	16A/LL	1C\_
.	16b-\	16E/	.
.	16a\	16F/	.
.	16g\JJ	16G/JJ	.
.	16f\LL	16A/LL	.
.	16g\	16Bn/	.
.	16f\	16c/	.
.	16e\JJ	16A/JJ	.
16r	[4d\	2B/	.
32g/LLL	.	.	.
32a/J	.	.	.
16b/	.	.	.
16cc/JJ	.	.	.
16dd/LL	8.d\L]	.	.
16ee/J	.	.	.
[8ff/J	.	.	.
.	16g\Jk	.	.
=27	=27	=27	=27
*^	*	*	*
32ff/LLL]	4a\	2ryy	1c/	1C\
32cc/	.	.	.	.
32dd/	.	.	.	.
32ee/J	.	.	.	.
16ff/	.	.	.	.
16gg/JJ	.	.	.	.
8.aa/L	16r	.	.	.
.	16ff\LK	.	.	.
.	8dd\J	.	.	.
16bb/Jk	.	.	.	.
2ccc;/	2gg/	2ee\	.	.
==|!	==|!	==|!	==|!	==|!
*-	*-	*-	*-	*-
!!!RWG: Key is interpreted using the Humdrum key tool.
!!!AFT: stage2
!!!END: 1994/01/07/
!!format changes:
!!content changes:
!!public access: complete
!!!KEY: 3133758672
!!!EMD: Converted from MuseData to Humdrum Dec 19, 2000, by Andreas Kornstaedt using muse2kern.
